material/.icons/material/polaroid.svg

<svg xmlns="http://www.w3.org/2000/svg" viewBox="0 0 24 24"><path d="M6 3h12a2 2 0 012 2v14a2 2 0 01-2 2H6a2 2 0 01-2-2V5a2 2 0 012-2m0 2v12h12V5H6z"/></svg>

<?xml version="1.0" encoding="UTF-8"?><!DOCTYPE svg PUBLIC "-//W3C//DTD SVG 1.1//EN" "http://www.w3.org/Graphics/SVG/1.1/DTD/svg11.dtd"><svg xmlns="http://www.w3.org/2000/svg" xmlns:xlink="http://www.w3.org/1999/xlink" version="1.1" id="mdi-polaroid" width="24" height="24" viewBox="0 0 24 24"><path d="M6,3H18A2,2 0 0,1 20,5V19A2,2 0 0,1 18,21H6A2,2 0 0,1 4,19V5A2,2 0 0,1 6,3M6,5V17H18V5H6Z" /></svg>
